components/Common/Svg/svgs/increasedRecognition.svg

<svg
  width="90"
  height="90"
  viewBox="0 0 90 90"
  fill="none"
  xmlns="http://www.w3.org/2000/svg"
>
  <circle
    opacity="0.5"
    cx="45"
    cy="45"
    r="45"
    fill="#FFE603"
  ></circle>
  <path
    d="M53.5665 31.1179V29H35.7939V31.1179C32.0046 31.3858 29 34.5499 29 38.4094C29 42.4475 32.2853 45.7264 36.317 45.7264C36.9485 45.7264 37.5673 45.6435 38.1734 45.484C39.143 46.5302 40.3614 47.3403 41.733 47.8252C42.4538 49.4838 42.4474 51.3848 41.7202 53.0434H39.9723V55.1358C38.5306 55.1358 37.3568 56.3096 37.3568 57.7513V61.4066H51.9908V57.7449C51.9908 56.3032 50.817 55.1294 49.3753 55.1294V53.037H47.6274C46.9002 51.3784 46.8938 49.4774 47.6146 47.8188C48.9862 47.334 50.2046 46.5238 51.1743 45.4776C51.7803 45.6371 52.3991 45.72 53.0306 45.72C57.0687 45.72 60.3476 42.4347 60.3476 38.403C60.3604 34.5499 57.3557 31.3858 53.5665 31.1179ZM53.4134 41.044C53.4453 40.8782 53.4708 40.7123 53.4899 40.5464C53.5027 40.4507 53.5154 40.3551 53.5218 40.2594C53.5473 39.9914 53.5601 39.7235 53.5601 39.4492V35.5451C54.8487 35.8577 55.8184 37.0187 55.8184 38.403C55.8184 39.8575 54.753 41.0695 53.3623 41.2992C53.3879 41.2226 53.4006 41.1333 53.4134 41.044ZM35.8003 35.4941V39.4492C35.7939 39.7235 35.813 39.9914 35.8386 40.2594C35.8449 40.3551 35.8577 40.4507 35.8704 40.5464C35.8896 40.7123 35.9151 40.8782 35.947 41.044C35.9661 41.1461 35.9789 41.2418 36.0044 41.3438C34.4734 41.2418 33.255 39.9659 33.255 38.4094C33.255 36.923 34.3649 35.6918 35.8003 35.4941ZM36.317 44.6802C32.8594 44.6802 30.0462 41.8669 30.0462 38.4094C30.0462 35.1241 32.5788 32.4257 35.7939 32.1577V34.4415C33.7844 34.6393 32.2024 36.3425 32.2024 38.4094C32.2024 40.6102 33.9886 42.3964 36.1894 42.3964V42.0902C36.2149 42.1731 36.2532 42.2497 36.2787 42.3326C36.3361 42.4921 36.3872 42.6516 36.451 42.8111C36.502 42.9387 36.5658 43.0599 36.6232 43.1874C36.6742 43.2959 36.7253 43.4043 36.7827 43.5128C36.8465 43.634 36.9103 43.7552 36.9804 43.87C37.0442 43.9785 37.108 44.0869 37.1782 44.1954C37.2484 44.3038 37.3185 44.4186 37.3887 44.5207C37.4078 44.5398 37.4142 44.5654 37.4334 44.5845C37.0697 44.6483 36.6934 44.6802 36.317 44.6802ZM49.3881 56.1756C50.2493 56.182 50.951 56.8837 50.951 57.7449V60.3604H38.4094V57.7449C38.4094 56.8773 39.1111 56.1756 39.9787 56.1756H49.3881ZM48.1377 54.0896H48.3419V55.1358H41.0185V54.0896H41.2163H48.1377ZM42.9769 48.1696C43.5319 48.2781 44.0997 48.3355 44.6802 48.3355C45.2607 48.3355 45.8285 48.2781 46.3834 48.1696C45.8922 49.7581 45.9241 51.4805 46.4983 53.0434H42.8621C43.4362 51.4805 43.4681 49.7581 42.9769 48.1696ZM51.6846 42.9323C51.6144 43.0726 51.5443 43.2066 51.4677 43.3405C51.423 43.4171 51.3784 43.4873 51.3337 43.5574C51.2508 43.6914 51.1679 43.819 51.0849 43.9466C51.0339 44.0167 50.9829 44.0805 50.9318 44.1507C50.8362 44.2719 50.7469 44.3995 50.6448 44.5143C49.2031 46.2112 47.066 47.2893 44.6738 47.2893C42.2816 47.2893 40.1445 46.2112 38.7028 44.5207C38.6008 44.3995 38.5051 44.2719 38.4094 44.1507C38.3584 44.0869 38.3073 44.0231 38.2627 43.953C38.1734 43.8254 38.0904 43.6914 38.0075 43.5638C37.9628 43.4936 37.9182 43.4235 37.8799 43.3469C37.8034 43.213 37.7332 43.0726 37.663 42.9387C37.6247 42.8621 37.5865 42.7856 37.5546 42.709C37.4908 42.5687 37.4334 42.4283 37.3759 42.288C37.3441 42.205 37.3122 42.1157 37.2803 42.0328C37.2292 41.8925 37.1846 41.7521 37.1463 41.6118C37.1208 41.5097 37.0953 41.414 37.0697 41.3119C37.0379 41.1844 37.006 41.0504 36.9804 40.9164C36.9549 40.7825 36.9358 40.6549 36.9166 40.5209C36.9039 40.4125 36.8847 40.3104 36.872 40.202C36.8465 39.9595 36.8337 39.7108 36.8337 39.4556V31.0924V30.0462H36.8401H52.5203V31.0924V39.4556C52.5203 39.7044 52.5075 39.9532 52.482 40.202C52.4692 40.3104 52.4565 40.4189 52.4374 40.5209C52.4182 40.6549 52.3991 40.7888 52.3736 40.9164C52.348 41.0504 52.3161 41.178 52.2842 41.3119C52.2587 41.414 52.2332 41.5161 52.2077 41.6118C52.1694 41.7521 52.1184 41.8925 52.0737 42.0264C52.0418 42.1094 52.0099 42.1987 51.978 42.2816C51.9206 42.4219 51.8632 42.5623 51.7994 42.7026C51.7612 42.7792 51.7229 42.8557 51.6846 42.9323ZM53.0434 44.6802C52.667 44.6802 52.297 44.6483 51.927 44.5845C51.9398 44.5654 51.9525 44.5462 51.9653 44.5207C52.0418 44.4123 52.1056 44.3038 52.1758 44.1954C52.246 44.0869 52.3098 43.9848 52.3736 43.87C52.4437 43.7488 52.5075 43.634 52.5713 43.5128C52.6287 43.4043 52.6798 43.2959 52.7308 43.1874C52.7882 43.0599 52.8456 42.9387 52.903 42.8111C52.9604 42.6707 53.0051 42.5304 53.0561 42.39C55.174 42.2943 56.8645 40.5464 56.8645 38.4094C56.8645 36.4446 55.4356 34.8115 53.5665 34.4862V32.1577C56.7816 32.4257 59.3142 35.1241 59.3142 38.4094C59.3142 41.8669 56.5009 44.6802 53.0434 44.6802Z"
    fill="black"
  ></path>
  <path
    d="M41.0306 57.7446H39.9844V58.7908H41.0306V57.7446Z"
    fill="black"
  ></path>
  <path
    d="M43.1126 57.7446H42.0664V58.7908H43.1126V57.7446Z"
    fill="black"
  ></path>
  <path
    d="M45.2024 57.7446H44.1562V58.7908H45.2024V57.7446Z"
    fill="black"
  ></path>
  <path
    d="M47.2962 57.7449H46.25V58.7911H47.2962V57.7449Z"
    fill="black"
  ></path>
  <path
    d="M49.386 57.7446H48.3398V58.7908H49.386V57.7446Z"
    fill="black"
  ></path>
  <path
    d="M51.5148 35.8321H46.6857L45.1929 31.239L43.7002 35.8321H38.8711L42.7752 38.6708L41.2952 43.2639L45.1993 40.4251L49.1034 43.2639L47.6107 38.6708L51.5148 35.8321ZM45.1993 39.1365L43.2792 40.5336L44.0128 38.2753L42.0926 36.8783H44.4657L45.1993 34.62L45.9329 36.8783H48.306L46.3858 38.2753L47.1195 40.5336L45.1993 39.1365Z"
    fill="black"
  ></path>
</svg>

<svg width="90" height="90" viewBox="0 0 90 90" fill="none" xmlns="http://www.w3.org/2000/svg"><circle opacity=".5" cx="45" cy="45" r="45" fill="#FFE603"/><path d="M53.566 31.118V29H35.794v2.118C32.004 31.386 29 34.55 29 38.409c0 4.038 3.285 7.317 7.317 7.317.632 0 1.25-.082 1.856-.242a8.9 8.9 0 0 0 3.56 2.341 6.54 6.54 0 0 1-.013 5.218h-1.748v2.093a2.62 2.62 0 0 0-2.615 2.615v3.656H51.99v-3.662a2.62 2.62 0 0 0-2.616-2.616v-2.092h-1.748a6.54 6.54 0 0 1-.012-5.218 8.9 8.9 0 0 0 3.56-2.341c.605.16 1.224.242 1.856.242 4.038 0 7.317-3.285 7.317-7.317.012-3.853-2.992-7.017-6.782-7.285Zm-.153 9.926c.032-.166.058-.332.077-.498a8.515 8.515 0 0 0 .07-1.097v-3.904a2.954 2.954 0 0 1 2.258 2.858 2.942 2.942 0 0 1-2.456 2.896c.026-.076.039-.166.051-.255ZM35.8 35.494v3.955c-.006.275.013.542.039.81.006.096.019.192.031.287.02.166.045.332.077.498.02.102.032.198.057.3a2.948 2.948 0 0 1-2.749-2.935 2.95 2.95 0 0 1 2.545-2.915Zm.517 9.186a6.278 6.278 0 0 1-6.27-6.27 6.28 6.28 0 0 1 5.747-6.252v2.283a3.994 3.994 0 0 0-3.592 3.968c0 2.201 1.787 3.987 3.987 3.987v-.306c.026.083.064.16.09.243.057.16.108.319.172.478.051.128.115.249.172.376a7.618 7.618 0 0 0 .357.683c.064.108.128.217.198.325.07.109.14.224.21.326.02.019.026.044.045.063-.363.064-.74.096-1.116.096Zm13.071 11.496a1.575 1.575 0 0 1 1.563 1.569v2.615H38.409v-2.615c0-.868.702-1.57 1.57-1.57h9.41Zm-1.25-2.086h.204v1.046h-7.323V54.09h7.119Zm-5.161-5.92a8.858 8.858 0 0 0 3.406 0 7.634 7.634 0 0 0 .115 4.873h-3.636a7.634 7.634 0 0 0 .115-4.873Zm8.708-5.238c-.07.14-.14.275-.217.408-.045.077-.09.147-.134.217a20.14 20.14 0 0 1-.25.39c-.05.07-.101.133-.152.204-.096.12-.185.248-.287.363a7.813 7.813 0 0 1-5.971 2.775 7.829 7.829 0 0 1-5.971-2.768c-.102-.121-.198-.25-.294-.37-.05-.064-.102-.128-.146-.198-.09-.128-.173-.262-.255-.39a2.41 2.41 0 0 1-.128-.216c-.077-.134-.147-.274-.217-.408a3.716 3.716 0 0 1-.108-.23c-.064-.14-.122-.28-.18-.421-.03-.083-.063-.172-.095-.255a5.337 5.337 0 0 1-.134-.421l-.076-.3a7.327 7.327 0 0 1-.09-.396 8.58 8.58 0 0 1-.063-.395c-.013-.108-.032-.21-.045-.319a7.133 7.133 0 0 1-.038-.746v-9.41H52.52v9.41c0 .248-.013.497-.038.746-.013.108-.026.217-.045.319-.019.134-.038.268-.063.395-.026.134-.058.262-.09.396-.025.102-.05.204-.076.3-.039.14-.09.28-.134.414l-.096.256c-.057.14-.115.28-.179.42l-.114.23Zm1.358 1.748a6.54 6.54 0 0 1-1.116-.096.56.56 0 0 0 .038-.063c.077-.109.14-.217.21-.326a10.08 10.08 0 0 0 .395-.683c.059-.108.11-.216.16-.325.058-.127.116-.248.173-.376.057-.14.102-.28.153-.421a3.99 3.99 0 0 0 3.809-3.98 3.988 3.988 0 0 0-3.299-3.924v-2.328a6.28 6.28 0 0 1 5.748 6.251 6.278 6.278 0 0 1-6.27 6.271Z" fill="#000"/><path d="M41.03 57.745h-1.046v1.046h1.047v-1.046ZM43.113 57.745h-1.047v1.046h1.047v-1.046ZM45.202 57.745h-1.046v1.046h1.046v-1.046ZM47.296 57.745H46.25v1.046h1.046v-1.046ZM49.386 57.745H48.34v1.046h1.046v-1.046ZM51.515 35.832h-4.83l-1.492-4.593-1.493 4.593h-4.829l3.904 2.839-1.48 4.593 3.904-2.839 3.904 2.839-1.492-4.593 3.904-2.839Zm-6.316 3.304-1.92 1.398.734-2.259-1.92-1.397h2.373l.733-2.258.734 2.258h2.373l-1.92 1.397.733 2.259-1.92-1.398Z" fill="#000"/></svg>
